X:1
T:Assiut, LM
T:Assiut, LM
T:George Coles Stebbins (1846-1945)
T:Public Domain Courtesy of the Cyber Hymnal™
C:George Coles Stebbins (1846-1945)
Z:Public Domain
Z:Courtesy of the Cyber Hymnal™
%%score ( 1 2 ) ( 3 4 )
L:1/8
Q:1/4=110
M:4/4
K:Eb
V:1 treble 
V:2 treble 
V:3 bass 
V:4 bass 
V:1
 [B,E]2 | [EG]2 [EG][FA] [GB]2 [B,E][B,F] | (E4 D2) [B,E]2 | [DF]2 [DF][EG] [FA]2 [GB][Ac] | %4
 [GB]6 [GB]2 | [Ge]2 [Fd][Fd] [Ec]2 [=EG][GB] | ([GB]4 [FA]2) E2 | %7
 [CG]2 [CF][CE] [B,E]2 [B,D]>[B,E] | [B,E]6 |] %9
V:2
 x2 | x8 | B,6 x2 | x8 | x8 | x8 | x6 E2 | x8 | x6 |] %9
V:3
 [E,G,]2 | [E,B,]2 [E,B,][E,B,] [E,E]2 [E,G,][E,A,] | (G,4 F,2) [B,,G,]2 | %3
 [B,,B,]2 [B,,B,][B,,B,] [B,,B,]2 [B,,B,][D,B,] | [E,B,]6 [E,B,]2 | %5
 [E,B,]2 [G,=B,][G,B,] [A,C]2 [C,C][C,C] | C6 [G,,C]2 | %7
 [A,,B,]2 [A,,A,][A,,F,] [B,,G,]2 [B,,A,]>[E,G,] | [E,G,]6 |] %9
V:4
 x2 | x8 | B,,6 x2 | x8 | x8 | x8 | (F,4 F,,2) x2 | x8 | x6 |] %9

